X:1
T:James Gibb editions
T:Psalm 76 (Becker) - Schütz
%%score [ ( 1 2 ) ( 3 4 ) ]
L:1/8
Q:1/4=100
M:2/2
K:C
V:1 treble nm="Soprano Alto"
V:2 treble 
V:3 bass nm="Tenor Bass"
V:4 bass 
V:1
"^Cornelius Becker\n(1561-1604)""^Psalm 76, SWV 173""^Heinrich Schütz\n(1585-1672)" G4 | %1
w: ~Wenn|
w: dem|
 A2 B2 c2 d2 | (cB) A2 G4 | B4 d2 B2 | c2 A2 (GF E2) | D4 :|[M:2/2] G2 D2 E2 ^F2 | G4 B2 d2 | %8
w: sich der Herr Gott|Ze\- * ba- oth|in sei- nem|Thron er- he\- * *|bet,|wenn Leut wü- ten|sehr und wü-|
w: E- len- den er|hilft * aus Not,|an Fein- den|Ehr ein- le\- * *|get,|||
 c2 B2 A4 | F2 c2 A2 B2 | c3 G A2 G2 | (FE) D2 C4 | G4 A2 c2 | B3 c (de A2) | G4 |] %15
w: ten noch mehr|mit Macht und viel|List, so ist er|auch * ge rüst,|fragt nichts nach|ih- rem To\- * *|ben.|
w: |||||||
V:2
 D4 | ^F2 G2 G2 G2 | (ED) D2 D4 | G4 A2 G2 | G2 F2 (E D2 ^C) | D4 :|[M:2/2] D2 G,2 G,2 D2 | %7
 D4 D2 F2 | F2 D2 D4 | C2 G2 F2 F2 | E3 C C2 C2 | (A, C2) B, C4 | E4 F2 E2 | G3 G (^F G2 F) | G4 |] %15
V:3
 B,4 | D2 D2 E2 D2 | G,2 ^F,2 G,4 | D4 A,2 D2 | E2 C (C>B,A,/G,/ A,2) | A,4 :| %6
[M:2/2] B,2 D2 C2 A,2 | B,4 G,2 A,2 | A,2 G,2 ^F,4 | A,2 G,2 C2 D2 | %10
 G,3 E,"^5. Haltet den Herren, eurem Gott, was ihr ihm habt gelobet,\nund steht ihm treulich zu Gebot, verehrt ihn schön mit Gaben,\nder Herr schrecklich ist, nimmt zu jeder Frist\nden Fürsten den Mut, sein Hand groß Wunder tut\nunter König'n auf Erden." F,2 E,2 | %11
 (F,G,) G,2 G,4 | C4 C2 A,2 | D3 E (A,3 D) | D4 |] %15
V:4
 G,4 | D,2 G,2 C,2 B,,2 | (C,G,,) D,2 G,,4 | G,4 ^F,2 G,2 | C,2 F,2 (C,D, A,,2) | D,4 :| %6
[M:2/2] G,,2 B,,2 C,2 D,2 | G,,4 G,2 D,2 | F,2 G,2 D,4 | F,2 E,2 F,2 D,2 | C,3 C, F,,2 C,2 | %11
 D,C, G,,2 C,4 | C,4 F,2 A,2 | G,3 E, (D,C, D,2) | G,4 |] %15

